(.../pcb-gcode-3.6.0.4/pcb-gcode.ulp)
(Copyright 2005 - 2012 by John Johnson)
(See readme.txt for licensing terms.)
(This file generated from the board:)
(.../Relaya_the second Version 2.brd)
(Current profile is .../pcb-gcode-3.6.0.4/profiles/generic.pp  )
(This file generated 2/26/2019 9:44 AM)
(Settings from pcb-machine.h)
(  Tool Size)
(0.3000 )
(Z Axis Settings)
(  High     Up        Down     Drill)
(12.7000 	2.4000 	-0.1000 	-1.7000 )
(spindle on time = 3.0000)
(milling depth = -0.2540)
(text depth = -0.1270)
(tool change at 0.0000 -12.0000 20.0000 )
(feed rate xy = F100.00 )
(feed rate z  = F100.00 )
(Settings from pcb-defaults.h)
(isolate min = 0.0254)
(isolate max = 0.3000)
(isolate step = 0.0900)
(Generated top outlines, top drill, )
(Unit of measure: mm)
(Metric Mode)
G21
(Absolute Coordinates)
G90
(G00 X0.0000 Y0.0000 )
M03
(G04 P3.000000)

G01 Z10
G00 X72.7700 Y37.9400 
G01 Z-0.2794 F100.00 
G01 Z10
(R2.4000  P1.000000)
(G01 Z10)
G00 X4.7700 Y71.9400 
G01 Z-1.700000
G01 Z10
(G01 Z10)
G00 X4.7700 Y3.9400 
G01 Z-1.700000
G01 Z10
(G01 Z10)
G00 X125.4900 Y54.5800 
G01 Z-1.700000
G01 Z10
(G01 Z10)
G00 X125.5200 Y74.4500 
G01 Z-1.700000
G01 Z10
(G01 Z10)
G00 X105.0270 Y11.2570 
G01 Z-1.700000
G01 Z10
(G01 Z10)
G00 X105.0270 Y13.7970 
G01 Z-1.700000
G01 Z10
(G01 Z10)
G00 X105.0270 Y16.3370 
G01 Z-1.700000
G01 Z10
(G01 Z10)
G00 X105.0270 Y18.8770 
G01 Z-1.700000
G01 Z10
(G01 Z10)
G00 X105.0270 Y21.4170 
G01 Z-1.700000
G01 Z10
(G01 Z10)
G00 X105.0270 Y23.9570 
G01 Z-1.700000
G01 Z10
(G01 Z10)
G00 X105.0270 Y26.4970 
G01 Z-1.700000
G01 Z10
(G01 Z10)
G00 X105.0270 Y29.0370 
G01 Z-1.700000
G01 Z10
(G01 Z10)
G00 X105.0270 Y31.5770 
G01 Z-1.700000
G01 Z10
(G01 Z10)
G00 X105.0270 Y34.1170 
G01 Z-1.700000
G01 Z10
(G01 Z10)
G00 X105.0270 Y36.6570 
G01 Z-1.700000
G01 Z10
(G01 Z10)
G00 X105.0270 Y39.1970 
G01 Z-1.700000
G01 Z10
(G01 Z10)
G00 X105.0270 Y41.7370 
G01 Z-1.700000
G01 Z10
(G01 Z10)
G00 X105.0270 Y44.2770 
G01 Z-1.700000
G01 Z10
(G01 Z10)
G00 X105.0270 Y46.8170 
G01 Z-1.700000
G01 Z10
(G01 Z10)
G00 X120.2670 Y46.8170 
G01 Z-1.700000
G01 Z10
(G01 Z10)
G00 X120.2670 Y44.2770 
G01 Z-1.700000
G01 Z10
(G01 Z10)
G00 X120.2670 Y41.7370 
G01 Z-1.700000
G01 Z10
(G01 Z10)
G00 X120.2670 Y39.1970 
G01 Z-1.700000
G01 Z10
(G01 Z10)
G00 X120.2670 Y36.6570 
G01 Z-1.700000
G01 Z10
(G01 Z10)
G00 X120.2670 Y34.1170 
G01 Z-1.700000
G01 Z10
(G01 Z10)
G00 X120.2670 Y31.5770 
G01 Z-1.700000
G01 Z10
(G01 Z10)
G00 X120.2670 Y29.0370 
G01 Z-1.700000
G01 Z10
(G01 Z10)
G00 X120.2670 Y26.4970 
G01 Z-1.700000
G01 Z10
(G01 Z10)
G00 X120.2670 Y23.9570 
G01 Z-1.700000
G01 Z10
(G01 Z10)
G00 X120.2670 Y21.4170 
G01 Z-1.700000
G01 Z10
(G01 Z10)
G00 X120.2670 Y18.8770 
G01 Z-1.700000
G01 Z10
(G01 Z10)
G00 X120.2670 Y16.3370 
G01 Z-1.700000
G01 Z10
(G01 Z10)
G00 X120.2670 Y13.7970 
G01 Z-1.700000
G01 Z10
(G01 Z10)
G00 X120.2670 Y11.2570 
G01 Z-1.700000
G01 Z10
(G01 Z10)
G00 X105.0270 Y8.7170 
G01 Z-1.700000
G01 Z10
(G01 Z10)
G00 X120.2670 Y8.7170 
G01 Z-1.700000
G01 Z10
(G01 Z10)
G00 X120.2670 Y49.3570 
G01 Z-1.700000
G01 Z10
(G01 Z10)
G00 X105.0270 Y49.3570 
G01 Z-1.700000
G01 Z10
(G01 Z10)
G00 X44.0300 Y58.2700 
G01 Z-1.700000
G01 Z10
(G01 Z10)
G00 X44.0300 Y68.2700 
G01 Z-1.700000
G01 Z10
(G01 Z10)
G00 X72.1900 Y14.5890 
G01 Z-1.700000
G01 Z10
(G01 Z10)
G00 X72.1900 Y24.7490 
G01 Z-1.700000
G01 Z10
(G01 Z10)
G00 X21.9680 Y29.3340 
G01 Z-1.700000
G01 Z10
(G01 Z10)
G00 X21.9680 Y19.1740 
G01 Z-1.700000
G01 Z10
(G01 Z10)
G00 X42.5560 Y40.8030 
G01 Z-1.700000
G01 Z10
(G01 Z10)
G00 X42.5560 Y30.6430 
G01 Z-1.700000
G01 Z10
(G01 Z10)
G00 X106.9590 Y55.6580 
G01 Z-1.700000
G01 Z10
(G01 Z10)
G00 X96.7990 Y55.6580 
G01 Z-1.700000
G01 Z10
(G01 Z10)
G00 X37.5800 Y18.7590 
G01 Z-1.700000
G01 Z10
(G01 Z10)
G00 X37.5800 Y8.5990 
G01 Z-1.700000
G01 Z10
(G01 Z10)
G00 X50.1600 Y69.5400 
G01 Z-1.700000
G01 Z10
(G01 Z10)
G00 X50.1600 Y59.3800 
G01 Z-1.700000
G01 Z10
(G01 Z10)
G00 X55.0800 Y62.4600 
G01 Z-1.700000
G01 Z10
(G01 Z10)
G00 X65.2400 Y62.4600 
G01 Z-1.700000
G01 Z10
(G01 Z10)
G00 X70.6500 Y59.3100 
G01 Z-1.700000
G01 Z10
(G01 Z10)
G00 X70.6500 Y69.4700 
G01 Z-1.700000
G01 Z10
(G01 Z10)
G00 X55.0800 Y66.4600 
G01 Z-1.700000
G01 Z10
(G01 Z10)
G00 X65.2400 Y66.4600 
G01 Z-1.700000
G01 Z10
(G01 Z10)
G00 X94.0800 Y8.0700 
G01 Z-1.700000
G01 Z10
(G01 Z10)
G00 X91.5400 Y8.0700 
G01 Z-1.700000
G01 Z10
(G01 Z10)
G00 X44.2600 Y4.3800 
G01 Z-1.700000
G01 Z10
(G01 Z10)
G00 X41.7200 Y4.3800 
G01 Z-1.700000
G01 Z10
(G01 Z10)
G00 X17.9500 Y47.9500 
G01 Z-1.700000
G01 Z10
(G01 Z10)
G00 X15.4100 Y47.9500 
G01 Z-1.700000
G01 Z10
(G01 Z10)
G00 X69.7100 Y52.4500 
G01 Z-1.700000
G01 Z10
(G01 Z10)
G00 X67.1700 Y52.4500 
G01 Z-1.700000
G01 Z10
(G01 Z10)
G00 X111.7800 Y55.2200 
G01 Z-1.700000
G01 Z10
(G01 Z10)
G00 X111.7800 Y52.6800 
G01 Z-1.700000
G01 Z10
(G01 Z10)
G00 X23.1700 Y67.0600 
G01 Z-1.700000
G01 Z10
(G01 Z10)
G00 X38.4100 Y67.0600 
G01 Z-1.700000
G01 Z10
(G01 Z10)
G00 X23.0700 Y61.8300 
G01 Z-1.700000
G01 Z10
(G01 Z10)
G00 X38.3100 Y61.8300 
G01 Z-1.700000
G01 Z10
(G01 Z10)
G00 X15.5600 Y58.9900 
G01 Z-1.700000
G01 Z10
(G01 Z10)
G00 X15.5600 Y66.6100 
G01 Z-1.700000
G01 Z10
(G01 Z10)
G00 X78.2160 Y6.4840 
G01 Z-1.700000
G01 Z10
(G01 Z10)
G00 X88.3760 Y6.4840 
G01 Z-1.700000
G01 Z10
(G01 Z10)
G00 X16.8800 Y29.3670 
G01 Z-1.700000
G01 Z10
(G01 Z10)
G00 X16.8800 Y19.2070 
G01 Z-1.700000
G01 Z10
(G01 Z10)
G00 X50.5920 Y50.0450 
G01 Z-1.700000
G01 Z10
(G01 Z10)
G00 X40.4320 Y50.0450 
G01 Z-1.700000
G01 Z10
(G01 Z10)
G00 X98.8160 Y31.1540 
G01 Z-1.700000
G01 Z10
(G01 Z10)
G00 X98.8160 Y41.3140 
G01 Z-1.700000
G01 Z10
(G01 Z10)
G00 X27.7200 Y3.1650 
G01 Z-1.700000
G01 Z10
(G01 Z10)
G00 X37.8800 Y3.1650 
G01 Z-1.700000
G01 Z10
(G01 Z10)
G00 X70.0670 Y8.8970 
G01 Z-1.700000
G01 Z10
(G01 Z10)
G00 X70.0670 Y6.3570 
G01 Z-1.700000
G01 Z10
(G01 Z10)
G00 X70.0670 Y11.4370 
G01 Z-1.700000
G01 Z10
(G01 Z10)
G00 X17.6150 Y39.7410 
G01 Z-1.700000
G01 Z10
(G01 Z10)
G00 X15.0750 Y39.7410 
G01 Z-1.700000
G01 Z10
(G01 Z10)
G00 X20.1550 Y39.7410 
G01 Z-1.700000
G01 Z10
(G01 Z10)
G00 X43.6840 Y45.0120 
G01 Z-1.700000
G01 Z10
(G01 Z10)
G00 X41.1440 Y45.0120 
G01 Z-1.700000
G01 Z10
(G01 Z10)
G00 X46.2240 Y45.0120 
G01 Z-1.700000
G01 Z10
(G01 Z10)
G00 X98.9670 Y49.8530 
G01 Z-1.700000
G01 Z10
(G01 Z10)
G00 X98.9670 Y47.3130 
G01 Z-1.700000
G01 Z10
(G01 Z10)
G00 X98.9670 Y52.3930 
G01 Z-1.700000
G01 Z10
(G01 Z10)
G00 X44.3520 Y11.1860 
G01 Z-1.700000
G01 Z10
(G01 Z10)
G00 X46.8920 Y11.1860 
G01 Z-1.700000
G01 Z10
(G01 Z10)
G00 X41.8120 Y11.1860 
G01 Z-1.700000
G01 Z10
(G01 Z10)
G00 X62.4700 Y21.6000 
G01 Z-1.700000
G01 Z10
(G01 Z10)
G00 X50.4700 Y21.6000 
G01 Z-1.700000
G01 Z10
(G01 Z10)
G00 X62.4700 Y9.6000 
G01 Z-1.700000
G01 Z10
(G01 Z10)
G00 X56.4700 Y23.6000 
G01 Z-1.700000
G01 Z10
(G01 Z10)
G00 X50.4700 Y9.6000 
G01 Z-1.700000
G01 Z10
(G01 Z10)
G00 X78.4900 Y18.5500 
G01 Z-1.700000
G01 Z10
(G01 Z10)
G00 X90.4900 Y18.5500 
G01 Z-1.700000
G01 Z10
(G01 Z10)
G00 X78.4900 Y30.5500 
G01 Z-1.700000
G01 Z10
(G01 Z10)
G00 X84.4900 Y16.5500 
G01 Z-1.700000
G01 Z10
(G01 Z10)
G00 X90.4900 Y30.5500 
G01 Z-1.700000
G01 Z10
(G01 Z10)
G00 X24.8500 Y36.9600 
G01 Z-1.700000
G01 Z10
(G01 Z10)
G00 X36.8500 Y36.9600 
G01 Z-1.700000
G01 Z10
(G01 Z10)
G00 X24.8500 Y48.9600 
G01 Z-1.700000
G01 Z10
(G01 Z10)
G00 X30.8500 Y34.9600 
G01 Z-1.700000
G01 Z10
(G01 Z10)
G00 X36.8500 Y48.9600 
G01 Z-1.700000
G01 Z10
(G01 Z10)
G00 X64.6700 Y43.8600 
G01 Z-1.700000
G01 Z10
(G01 Z10)
G00 X52.6700 Y43.8600 
G01 Z-1.700000
G01 Z10
(G01 Z10)
G00 X64.6700 Y31.8600 
G01 Z-1.700000
G01 Z10
(G01 Z10)
G00 X58.6700 Y45.8600 
G01 Z-1.700000
G01 Z10
(G01 Z10)
G00 X52.6700 Y31.8600 
G01 Z-1.700000
G01 Z10
(G01 Z10)
G00 X91.0900 Y43.2000 
G01 Z-1.700000
G01 Z10
(G01 Z10)
G00 X91.0900 Y55.2000 
G01 Z-1.700000
G01 Z10
(G01 Z10)
G00 X79.0900 Y43.2000 
G01 Z-1.700000
G01 Z10
(G01 Z10)
G00 X93.0900 Y49.2000 
G01 Z-1.700000
G01 Z10
(G01 Z10)
G00 X79.0900 Y55.2000 
G01 Z-1.700000
G01 Z10
(G01 Z10)
G00 X4.1500 Y18.8200 
G01 Z-1.700000
G01 Z10
(G01 Z10)
G00 X4.1600 Y22.8200 
G01 Z-1.700000
G01 Z10
(G01 Z10)
G00 X4.1500 Y26.8200 
G01 Z-1.700000
G01 Z10
(G01 Z10)
G00 X4.1500 Y30.8200 
G01 Z-1.700000
G01 Z10
(G01 Z10)
G00 X4.1500 Y34.8200 
G01 Z-1.700000
G01 Z10
(G01 Z10)
G00 X4.1400 Y38.8200 
G01 Z-1.700000
G01 Z10
(G01 Z10)
G00 X4.1600 Y42.8200 
G01 Z-1.700000
G01 Z10
(G01 Z10)
G00 X4.1400 Y46.8200 
G01 Z-1.700000
G01 Z10
(G01 Z10)
G00 X4.1500 Y50.8200 
G01 Z-1.700000
G01 Z10
(G01 Z10)
G00 X4.1500 Y54.8200 
G01 Z-1.700000
G01 Z10
G00 Z12.7000 
M05
M02

